icon-themes/colibre_svg/vcl/res/autoscroll_nswe.svg

<svg viewBox="0 0 256 256" xmlns="http://www.w3.org/2000/svg"><path d="m123.40625 28-31.40625 53.843752v10.156248h8 64v-10.156248l-31.40625-53.843752zm40.59375 64v8 64h10.15625l53.84375-31.40625v-9.1875l-53.84375-31.40625zm0 72h-64-8v10.15625l31.40625 53.84375h9.1875l31.40625-53.84375zm-72 0v-64-8h-10.156248l-53.843752 31.40625v9.1875l53.843752 31.40625zm36-128 28 48h-56zm-44 64v56l-48-28zm44 0a28 28 0 0 0 -28 28 28 28 0 0 0 28 28 28 28 0 0 0 28-28 28 28 0 0 0 -28-28zm44 0 48 28-48 28zm-44 8a20 20 0 0 1 20 20 20 20 0 0 1 -20 20 20 20 0 0 1 -20-20 20 20 0 0 1 .0937-2 20 20 0 0 1 19.9063-18zm-28 64h56l-28 48z" fill="#fff"/><path d="m128 36-28 48h56zm-44 64-48 28 48 28zm88 0v56l48-28zm-44 8a20 20 0 0 0 -20 20 20 20 0 0 0 20 20 20 20 0 0 0 20-20 20 20 0 0 0 -20-20zm-28 64 28 48 28-48z"/></svg>

<svg xmlns="http://www.w3.org/2000/svg" viewBox="0 0 256 256">
  <path
     style="fill:#ffffff"
     d="M 123.40625,28 92,81.843752 V 92 h 8 64 V 81.843752 L 132.59375,28 Z M 164,92 v 8 64 h 10.15625 L 228,132.59375 v -9.1875 L 174.15625,92 Z m 0,72 h -64 -8 v 10.15625 L 123.40625,228 h 9.1875 L 164,174.15625 Z m -72,0 V 100 92 H 81.843752 L 28,123.40625 v 9.1875 L 81.843752,164 Z m 36,-128 28,48 h -56 z m -44,64 v 56 L 36,128 Z m 44,0 a 28,28 0 0 0 -28,28 28,28 0 0 0 28,28 28,28 0 0 0 28,-28 28,28 0 0 0 -28,-28 z m 44,0 48,28 -48,28 z m -44,8 a 20,20 0 0 1 20,20 20,20 0 0 1 -20,20 20,20 0 0 1 -20,-20 20,20 0 0 1 0.0937,-2 A 20,20 0 0 1 128,108 Z m -28,64 h 56 l -28,48 z"
     />
  <path
     style="fill:#000000"
     d="m 128,36 -28,48 h 56 z m -44,64 -48,28 48,28 z m 88,0 v 56 l 48,-28 z m -44,8 a 20,20 0 0 0 -20,20 20,20 0 0 0 20,20 20,20 0 0 0 20,-20 20,20 0 0 0 -20,-20 z m -28,64 28,48 28,-48 z"
     />
</svg>
